common/src/main/resources/icons/general/trialBadge.svg

<!--
  - The MIT License (MIT)
  -
  - Copyright (c) 2015-2024 Elior "Mallowigi" Boukhobza
  -
  - Permission is hereby granted, free of charge, to any person obtaining a copy
  - of this software and associated documentation files (the "Software"), to deal
  - in the Software without restriction, including without limitation the rights
  - to use, copy, modify, merge, publish, distribute, sublicense, and/or sell
  - copies of the Software, and to permit persons to whom the Software is
  - furnished to do so, subject to the following conditions:
  -
  - The above copyright notice and this permission notice shall be included in all
  - copies or substantial portions of the Software.
  -
  - THE SOFTWARE IS PROVIDED "AS IS", WITHOUT WARRANTY OF ANY KIND, EXPRESS OR
  - IMPLIED, INCLUDING BUT NOT LIMITED TO THE WARRANTIES OF MERCHANTABILITY,
  - FITNESS FOR A PARTICULAR PURPOSE AND NONINFRINGEMENT. IN NO EVENT SHALL THE
  - AUTHORS OR COPYRIGHT HOLDERS BE LIABLE FOR ANY CLAIM, DAMAGES OR OTHER
  - LIABILITY, WHETHER IN AN ACTION OF CONTRACT, TORT OR OTHERWISE, ARISING FROM,
  - OUT OF OR IN CONNECTION WITH THE SOFTWARE OR THE USE OR OTHER DEALINGS IN THE
  - SOFTWARE.
  -->
<svg width="32" height="16" viewBox="0 0 32 16" fill="none" xmlns="http://www.w3.org/2000/svg">
  <defs>
    <mask id="Mask">
      <rect y="1" x="1" width="30" height="14" rx="2" fill="white"/>
      <path
        d="M7.6709 11.5V5.39648H5.4541V4.4541H10.9766V5.39648H8.76465V11.5H7.6709ZM11.5234 11.5V6.19727H12.583V6.99805H12.6611C12.8516 6.43652 13.3447 6.10449 14.0527 6.10449C14.2236 6.10449 14.4092 6.12891 14.5166 6.15332V7.12988C14.3262 7.09082 14.1455 7.06641 13.9453 7.06641C13.1348 7.06641 12.583 7.56445 12.583 8.33105V11.5H11.5234ZM16.0791 5.25C15.7129 5.25 15.415 4.95215 15.415 4.59082C15.415 4.22461 15.7129 3.92676 16.0791 3.92676C16.4404 3.92676 16.7432 4.22461 16.7432 4.59082C16.7432 4.95215 16.4404 5.25 16.0791 5.25ZM15.5469 11.5V6.19727H16.6016V11.5H15.5469ZM19.5996 11.5879C18.5889 11.5879 17.8418 10.9727 17.8418 10.0107V10.001C17.8418 9.05371 18.5547 8.50195 19.8193 8.42383L21.2549 8.34082V7.87207C21.2549 7.29102 20.8887 6.96875 20.1709 6.96875C19.585 6.96875 19.1992 7.18359 19.0723 7.55957L19.0674 7.5791H18.0469L18.0518 7.54492C18.1787 6.67578 19.0137 6.09473 20.2197 6.09473C21.5527 6.09473 22.3047 6.75879 22.3047 7.87207V11.5H21.2549V10.748H21.1719C20.8594 11.2852 20.3027 11.5879 19.5996 11.5879ZM18.8965 9.9668C18.8965 10.4551 19.3115 10.7432 19.8828 10.7432C20.6738 10.7432 21.2549 10.2256 21.2549 9.54199V9.08789L19.9609 9.1709C19.2285 9.21484 18.8965 9.47852 18.8965 9.95703V9.9668ZM23.8477 11.5V4.11719H24.9072V11.5H23.8477Z"
        fill="black"/>
    </mask>
  </defs>
  <g mask="url(#Mask)">
    <rect y="1" x="1" width="30" height="14" rx="2" fill="#26C6DA" data-tint="true"/>
    <path
      d="M7.6709 11.5V5.39648H5.4541V4.4541H10.9766V5.39648H8.76465V11.5H7.6709ZM11.5234 11.5V6.19727H12.583V6.99805H12.6611C12.8516 6.43652 13.3447 6.10449 14.0527 6.10449C14.2236 6.10449 14.4092 6.12891 14.5166 6.15332V7.12988C14.3262 7.09082 14.1455 7.06641 13.9453 7.06641C13.1348 7.06641 12.583 7.56445 12.583 8.33105V11.5H11.5234ZM16.0791 5.25C15.7129 5.25 15.415 4.95215 15.415 4.59082C15.415 4.22461 15.7129 3.92676 16.0791 3.92676C16.4404 3.92676 16.7432 4.22461 16.7432 4.59082C16.7432 4.95215 16.4404 5.25 16.0791 5.25ZM15.5469 11.5V6.19727H16.6016V11.5H15.5469ZM19.5996 11.5879C18.5889 11.5879 17.8418 10.9727 17.8418 10.0107V10.001C17.8418 9.05371 18.5547 8.50195 19.8193 8.42383L21.2549 8.34082V7.87207C21.2549 7.29102 20.8887 6.96875 20.1709 6.96875C19.585 6.96875 19.1992 7.18359 19.0723 7.55957L19.0674 7.5791H18.0469L18.0518 7.54492C18.1787 6.67578 19.0137 6.09473 20.2197 6.09473C21.5527 6.09473 22.3047 6.75879 22.3047 7.87207V11.5H21.2549V10.748H21.1719C20.8594 11.2852 20.3027 11.5879 19.5996 11.5879ZM18.8965 9.9668C18.8965 10.4551 19.3115 10.7432 19.8828 10.7432C20.6738 10.7432 21.2549 10.2256 21.2549 9.54199V9.08789L19.9609 9.1709C19.2285 9.21484 18.8965 9.47852 18.8965 9.95703V9.9668ZM23.8477 11.5V4.11719H24.9072V11.5H23.8477Z"
    />
  </g>
</svg>

<svg xmlns="http://www.w3.org/2000/svg" width="32" height="16" fill="none"><defs><mask id="a"><rect width="30" height="14" x="1" y="1" fill="#fff" rx="2"/><path fill="#000" d="M7.67 11.5V5.396H5.455v-.942h5.523v.942H8.765V11.5zm3.853 0V6.197h1.06v.801h.078c.19-.561.684-.894 1.392-.894.17 0 .356.025.464.05v.976a2.8 2.8 0 0 0-.572-.064c-.81 0-1.362.498-1.362 1.265V11.5zm4.556-6.25a.664.664 0 0 1-.664-.66.665.665 0 0 1 1.328 0c0 .362-.303.66-.664.66m-.532 6.25V6.197h1.055V11.5zm4.053.088c-1.011 0-1.758-.615-1.758-1.577V10c0-.947.713-1.499 1.977-1.577l1.436-.083v-.469c0-.581-.366-.903-1.084-.903-.586 0-.972.215-1.099.59l-.005.02h-1.02l.005-.034c.127-.87.962-1.45 2.168-1.45 1.333 0 2.085.664 2.085 1.777V11.5h-1.05v-.752h-.083c-.313.537-.87.84-1.572.84m-.704-1.621c0 .488.415.776.987.776.79 0 1.372-.517 1.372-1.201v-.454l-1.294.083c-.732.044-1.064.308-1.064.786zm4.952 1.533V4.117h1.06V11.5z"/></mask></defs><g mask="url(#a)"><rect width="30" height="14" x="1" y="1" fill="#26C6DA" data-tint="true" rx="2"/><path d="M7.67 11.5V5.396H5.455v-.942h5.523v.942H8.765V11.5zm3.853 0V6.197h1.06v.801h.078c.19-.561.684-.894 1.392-.894.17 0 .356.025.464.05v.976a2.8 2.8 0 0 0-.572-.064c-.81 0-1.362.498-1.362 1.265V11.5zm4.556-6.25a.664.664 0 0 1-.664-.66.665.665 0 0 1 1.328 0c0 .362-.303.66-.664.66m-.532 6.25V6.197h1.055V11.5zm4.053.088c-1.011 0-1.758-.615-1.758-1.577V10c0-.947.713-1.499 1.977-1.577l1.436-.083v-.469c0-.581-.366-.903-1.084-.903-.586 0-.972.215-1.099.59l-.005.02h-1.02l.005-.034c.127-.87.962-1.45 2.168-1.45 1.333 0 2.085.664 2.085 1.777V11.5h-1.05v-.752h-.083c-.313.537-.87.84-1.572.84m-.704-1.621c0 .488.415.776.987.776.79 0 1.372-.517 1.372-1.201v-.454l-1.294.083c-.732.044-1.064.308-1.064.786zm4.952 1.533V4.117h1.06V11.5z"/></g></svg>
